icons/pen-outline.svg

<svg width="24" height="24" viewBox="0 0 24 24" fill="none" xmlns="http://www.w3.org/2000/svg">
<path fill-rule="evenodd" clip-rule="evenodd" d="M17.005 2.75493C17.953 1.81493 18.895 1.81493 19.833 2.75393C21.24 4.16293 19.831 2.74993 21.241 4.16193C22.181 5.10293 22.181 6.04493 21.238 6.98693L18.408 9.81693L14.176 5.58393L17.005 2.75393V2.75493ZM18.416 4.16493L17.001 5.57993L18.412 6.99093L19.827 5.57693L18.416 4.16593V4.16493ZM12.929 6.81093L17.162 11.0439L7.088 21.1169L3.247 21.9009C3.09316 21.93 2.93504 21.9277 2.78211 21.8942C2.62918 21.8607 2.48459 21.7967 2.357 21.7059C2.091 21.5199 1.987 21.1899 2.045 20.7129L2.855 16.8849L12.93 6.80993L12.929 6.81093ZM12.929 9.65093L4.979 17.6029L4.269 19.7229L6.389 19.0139L14.341 11.0629L12.93 9.65193L12.929 9.65093Z" fill="#3A3A47"/>
</svg>

<svg xmlns="http://www.w3.org/2000/svg" width="24" height="24" viewBox="0 0 24 24">
    <path fill="#3A3A47" fill-rule="evenodd" d="M17.162 11.044L7.088 21.117l-3.841.784a1.163 1.163 0 0 1-.89-.195c-.266-.186-.37-.516-.312-.993l.81-3.828L12.93 6.81l4.233 4.233zm-2.821.019L12.93 9.652l-7.952 7.951-.709 2.12 2.12-.709 7.952-7.951zm6.9-6.901c.94.941.94 1.883-.003 2.825l-2.83 2.83-4.232-4.233 2.829-2.83c.948-.94 1.89-.94 2.828 0l1.408 1.408zm-1.414 1.415l-1.411-1.411-1.415 1.414 1.411 1.411 1.415-1.414z"/>
</svg>
